X:20004
T:Teahan's Fling
T:Terry Cuz Teahans; Teehans
R:Fling
C:Trad.
O:Ireland (after Scotland?)
M:4/4
L:1/8
Q:1/4=120
K:Emin
|:"Bm"B2 BA "Em"B2 BA|"Bm"dB AF "D"DE FA|"Em"B2 BA "Em"B2 BA|"Bm"dB AF "Em"E3 A|
"Bm"B2 BA "Em"B2 BA|"Bm"dB AF "D"DE FA|"Em"B2 BA "Em"B2 BA|"Bm"dB AF "Em"E3 A|
"Bm"Be ef "Em"g2 fe|"G"d2 Bd "D"AD FA|"Em"Be ef "Em"g2 fe|"Bm"dB AF "Em"E3 A|
"Bm"Be ef "Em"g2 fe|"G"d2 Bd "D"AD FA|"Em"Be ed "Bm"BA FE|1"Bm"DE FD "Em"EF GA:|2"Bm"DE FD "Em"E4|]

